exported-svg/phone.svg

<svg height="24" viewBox="0 0 24 24" width="24" xmlns="http://www.w3.org/2000/svg"><path d="m22.8881215 20.4182837c.0028573.7039314-.29119 1.3764479-.8099027 1.8523311-.5187126.4758831-1.2140174.711029-1.9241044.6467726-3.1549116-.3428069-6.1854263-1.4208695-8.8441495-3.1450673-2.47812503-1.5747038-4.57914244-3.6757212-6.15147923-6.1501571-1.73272083-2.674708-2.81102827-5.71996061-3.14833092-8.89684959-.06315849-.69890959.17034001-1.39218447.64345722-1.91047368.47308235-.51825102 1.14220728-.8138408 1.84451364-.8147216h2.99512814c1.25482237-.01210675 2.3243312.90770766 2.50057905 2.15481631.1216922.92268069.3473743 1.82863316.672319 2.6994483.3434187.91359379.1237688 1.94350784-.5644728 2.63948384l-.99713942.99713942c1.30535732 2.170167 3.12272752 3.987537 5.29289472 5.2928941l.9991218-.9991131c.6939921-.6862688 1.7239062-.9059187 2.6363719-.5629224.8719432.3253671 1.7778957.5510492 2.7050438.6733511 1.2547937.1770207 2.1783095 1.2647438 2.1501538 2.5309605zm-.9999959-2.9979705.0001539-.0124025c.0188925-.7614056-.535828-1.4161048-1.2855326-1.5218903-.9974523-.1315538-1.9768206-.3755246-2.9205517-.7276811-.5481563-.2060512-1.1661047-.0742613-1.5805162.3355273l-1.27 1.27c-.1591565.1591565-.4050387.1923503-.6007006.0810938-2.5817817-1.4680415-4.71945846-3.6057183-6.18750004-6.1875-.11125645-.1956619-.07806264-.4415441.08109386-.6007006l1.26802724-1.26801617c.4117613-.4163953.54355125-1.03434373.33707753-1.58362802-.35173398-.94260307-.59570475-1.92197146-.72663056-2.91482664-.10537373-.74551989-.74710935-1.29743462-1.50492082-1.29014686h-2.99944157c-.421123.00054278-.82264808.17791879-1.10651323.48888665-.28387033.31097352-.42396943.72693845-.38684083 1.13848464.31994985 3.0128997 1.34511251 5.9080659 2.99480252 8.454639 1.49596856 2.3542188 3.4919351 4.3501853 5.8500437 5.848651 2.5313852 1.6415941 5.4125399 2.666524 8.4029535 2.9915393.420648.0380161.8378309-.1030715 1.1490584-.3886014.3112276-.2855299.487656-.6890398.4859375-1.1134281z"/></svg>

<?xml version="1.0" encoding="UTF-8"?>
<svg width="24px" height="24px" viewBox="0 0 24 24" version="1.1" xmlns="http://www.w3.org/2000/svg" xmlns:xlink="http://www.w3.org/1999/xlink">
    <!-- Generator: Sketch 55.2 (78181) - https://sketchapp.com -->
    <title>phone</title>
    <desc>Created with Sketch.</desc>
    <g id="phone" stroke="none" stroke-width="1" fill="none" fill-rule="evenodd">
        <path d="M22.8881215,20.4182837 C22.8909788,21.1222151 22.5969315,21.7947316 22.0782188,22.2706148 C21.5595062,22.7464979 20.8642014,22.9816438 20.1541144,22.9173874 C16.9992028,22.5745805 13.9686881,21.4965179 11.3099649,19.7723201 C8.83183987,18.1976163 6.73082246,16.0965989 5.15848567,13.622163 C3.42576484,10.947455 2.3474574,7.90220239 2.01015475,4.72531341 C1.94699626,4.02640382 2.18049476,3.33312894 2.65361197,2.81483973 C3.12669432,2.29658871 3.79581925,2.00099893 4.49812561,2.00011813 L7.49325375,2.00011813 C8.74807612,1.98801138 9.81758495,2.90782579 9.9938328,4.15493444 C10.115525,5.07761513 10.3412071,5.9835676 10.6661518,6.85438274 C11.0095705,7.76797653 10.7899206,8.79789058 10.101679,9.49386658 L9.10453958,10.491006 C10.4098969,12.661173 12.2272671,14.478543 14.3974343,15.7839001 L15.3965561,14.784787 C16.0905482,14.0985182 17.1204623,13.8788683 18.032928,14.2218646 C18.9048712,14.5472317 19.8108237,14.7729138 20.7379718,14.8952157 C21.9927655,15.0722364 22.9162813,16.1599595 22.8881256,17.4261762 L22.8881215,20.4182837 Z M21.8881256,17.4203132 L21.8882795,17.4079107 C21.907172,16.6465051 21.3524515,15.9918059 20.6027469,15.8860204 C19.6052946,15.7544666 18.6259263,15.5104958 17.6821952,15.1583393 C17.1340389,14.9522881 16.5160905,15.084078 16.101679,15.4938666 L14.831679,16.7638666 C14.6725225,16.9230231 14.4266403,16.9562169 14.2309784,16.8449604 C11.6491967,15.3769189 9.51151994,13.2392421 8.04347836,10.6574604 C7.93222191,10.4617985 7.96541572,10.2159163 8.12457222,10.0567598 L9.39259946,8.78874363 C9.80436076,8.37234833 9.93615071,7.7543999 9.72967699,7.20511561 C9.37794301,6.26251254 9.13397224,5.28314415 9.00304643,4.29028897 C8.8976727,3.54476908 8.25593708,2.99285435 7.49812561,3.00014211 L4.49868404,3.00014211 C4.07756104,3.00068489 3.67603596,3.1780609 3.39217081,3.48902876 C3.10830048,3.80000228 2.96820138,4.21596721 3.00532998,4.6275134 C3.32527983,7.6404131 4.35044249,10.5355793 6.0001325,13.0821524 C7.49610106,15.4363712 9.4920676,17.4323377 11.8501762,18.9308034 C14.3815614,20.5723975 17.2627161,21.5973274 20.2531297,21.9223427 C20.6737777,21.9603588 21.0909606,21.8192712 21.4021881,21.5337413 C21.7134157,21.2482114 21.8898441,20.8447015 21.8881256,20.4203132 L21.8881256,17.4203132 Z" id="Shape" fill="#000000" fill-rule="nonzero"></path>
    </g>
</svg>
